X:1
T:Zundel, 11.11.11.11
T:Zundel, 11.11.11.11
T:John Zundel, circa 1865
T:Public Domain Courtesy of the Cyber Hymnal™
C:John Zundel, circa 1865
Z:Public Domain
Z:Courtesy of the Cyber Hymnal™
%%score ( 1 2 ) ( 3 4 )
L:1/8
Q:1/4=115
M:4/4
K:G
V:1 treble 
V:2 treble 
V:3 bass 
V:4 bass 
V:1
 [GB]2 [DA]2 [DG]2 [DF]2 | (E3 F) [DG]4 | [DG]2 [GB]2 [EA]2 [EG]2 | (G4 F4) | %4
 [B,B]2 [CA]2 [DG]2 [DF]2 x | (E3 F) [B,G]4 | [DG]2 [GB]2 B3 z x | G8 | [FA]2 [GA]2 A2 [FA]2 | %9
 (B3 A) [DG]4 | [EG]2 [B,E]2 [A,A]2 [^CG]2 | [DF]8 | [DA]2 [DA]2 [DB]2 [Fc]2 | d4 G2 c2 | %14
 [GB]2 [EA]2 [DG]2 [DF]2 | [DG]8 |] %16
V:2
 x8 | C4 x4 | x8 | D8 | x9 | C4 x4 | x4 G2 (F2 A) | G8 | x4 A2 x2 | G4 x4 | x8 | x8 | x8 | %13
 (G2 F2) E4 | x8 | x8 |] %16
V:3
 [G,D]2 [G,C]2 [G,B,]2 [B,,B,]2 | ([C,G,]2 [A,,A,]2) [G,,B,]4 | [B,,G,]2 [G,,D]2 [C,C]2 [A,,C]2 | %3
 (B,4 A,4) | G,2 [G,A,]2 B,3 z A, | [C,G,]2 [A,,A,]2 [E,G,]4 | [B,,G,]2 [G,,D]2 D3 z C | [G,B,]8 | %8
 [D,D]2 [E,^C]2 [F,D]2 [D,D]2 | (D3 C) [G,,B,]4 | B,2 z [^C,E,]2 [A,,A,]2 x | [D,A,]8 | %12
 [D,F,]2 [C,F,]2 [B,,G,]2 [A,,A,]2 | [B,,G,]4 ([E,G,]2 [A,,A,]2) | [B,,D]2 [C,C]2 [D,B,]2 [D,A,]2 | %15
 [G,,B,]8 |] %16
V:4
 x8 | x8 | x8 | D,8 | G,2 G,2 B,,2 x3 | x8 | x4 D,2 D,2 x | x8 | x8 | G,4 x4 | E,3 (G,2 D,) x2 | %11
 x8 | x8 | x8 | x8 | x8 |] %16

